X: 29894
T: O'Meara's
R: jig
M: 6/8
K: Dmajor
|:A|dcd AFE|DFD E2 A|DF/G/A dfa|ged c2 A|
dB/c/d AFE|D/E/FD E2 A|DF/G/A dfa|gec d2:|
|:g|fed f/g/af|ged c2 e|fdB gec|dcB A2 c|
dcd afd|B^AB g2 c|dcB AFd|EG/F/E D2:|

